src/static/logos/aws-sqs.svg

<svg width="256" height="309" xmlns="http://www.w3.org/2000/svg" preserveAspectRatio="xMidYMid"><path d="M255.991 100.211l-4.112-.069-123.792-36.65-.074-1.696V0L256 64.006l-.009 36.205" fill="#D9A741"/><path d="M128 65.5l.013-65.5L.017 63.981 0 244.996l.064.032v.002l127.923 63.973.425-.591-.165-60.871-.251-.339L120 241.5 21 212l.5-114.5 106.5-32" fill="#876929"/><path d="M147.141 195.298l-130.79 18.399.009-118.417 130.79 18.424-.009 81.594" fill="#D9A741"/><path d="M80.864 187.813l47.132 6 .008-78.658-47.131 5.995-.009 66.663m-47.479-6.042l30.587 3.888.009-62.363-30.596 3.897v54.578" fill="#876929"/><path d="M16.36 95.28l111.653-33.484 127.978 38.415-108.76 13.502L16.36 95.28" fill="#624A1E"/><path d="M255.927 177.376l-127.931 16.145.008-78.366 127.923 16.296v45.925m-.009 31.458l-2.753.119-124.776 37.77-.393.479-.009 61.801 127.931-63.951v-36.218" fill="#D9A741"/><path d="M16.351 213.697l111.645 33.505 127.922-38.368-108.777-13.536-130.79 18.399" fill="#FAD791"/></svg>

<?xml version="1.0" encoding="UTF-8" standalone="no"?>
<svg width="256px" height="309px" viewBox="0 0 256 309" version="1.1" xmlns="http://www.w3.org/2000/svg" xmlns:xlink="http://www.w3.org/1999/xlink" preserveAspectRatio="xMidYMid">
	<g>
		<path d="M255.991,100.211 L251.879,100.142 L128.087,63.492 L128.013,61.796 L128.013,0 L256,64.006 L255.991,100.211" fill="#D9A741"></path>
		<path d="M128,65.5 L128.013,0 L0.017,63.981 L0,244.996 L0.064,245.028 L0.064,245.03 L127.987,309.003 L128.412,308.412 L128.247,247.541 L127.996,247.202 L120,241.5 L21,212 L21.5,97.5 L128,65.5" fill="#876929"></path>
		<path d="M147.141,195.298 L16.351,213.697 L16.36,95.28 L147.15,113.704 L147.141,195.298" fill="#D9A741"></path>
		<path d="M80.864,187.813 L127.996,193.813 L128.004,115.155 L80.873,121.15 L80.864,187.813" fill="#876929"></path>
		<path d="M33.385,181.771 L63.972,185.659 L63.981,123.296 L33.385,127.193 L33.385,181.771" fill="#876929"></path>
		<path d="M16.36,95.28 L128.013,61.796 L255.991,100.211 L147.231,113.713 L16.36,95.28" fill="#624A1E"></path>
		<path d="M255.927,177.376 L127.996,193.521 L128.004,115.155 L255.927,131.451 L255.927,177.376" fill="#D9A741"></path>
		<path d="M255.918,208.834 L253.165,208.953 L128.389,246.723 L127.996,247.202 L127.987,309.003 L255.918,245.052 L255.918,208.834" fill="#D9A741"></path>
		<path d="M16.351,213.697 L127.996,247.202 L255.918,208.834 L147.141,195.298 L16.351,213.697" fill="#FAD791"></path>
	</g>
</svg>
